X:196
T:Contrazz
C:Rodney Miller
N:TablEdited by Mikel Black 
L:1/8
Q:1/4=200
M:4/4
K:F
z8 |: "Dm"FG Ac d2 FG | Ac d_e dc AG | "C"EG Ac dD Dd | zd d_e dc AG | "Dm"FG Ac dD FG | 
Ac d_e dc A2 | "Am"a3g ze (3c=BA | {c}"Em"=B3"Am"A zG (3FED :| 
K:C
|: "C"[EG,][GG,] z2 [G3G,3]E | GE Gc AG EG | "F"FE FG A2 FA | zA A_B AG ED | "C"[EG,][GG,] z2 [G3G,3]E | 
GE Gc AG EG | "F"FE FG AB cA | "G"GE DE "C"C4 :| 
 

